svg/immich-kiosk.svg

<svg width="483" height="483" viewBox="0 0 483 483" fill="none" xmlns="http://www.w3.org/2000/svg">
<path d="M240.708 114.136C276.246 78.5983 390.968 50.85 411.828 71.7096C425.105 84.9869 418.69 136.292 403.107 181C403.107 181 353 145 303 162.5C253 180 240.708 242.829 240.708 242.829C205.171 207.292 205.171 149.674 240.708 114.136Z" fill="#8BBB25"/>
<path d="M331 150.88C381.258 150.88 482 212.38 482 241.88C482 260.657 441.185 292.399 398.553 312.993C398.553 312.993 388.578 252.107 340.848 229.126C293.119 206.145 240 241.88 240 241.88C240 191.622 280.742 150.88 331 150.88Z" fill="#18C249"/>
<path d="M368.864 240.708C404.401 276.246 432.15 390.968 411.29 411.828C398.013 425.105 346.708 418.689 302 403.107C302 403.107 338 353 320.5 303C303 253 240.17 240.708 240.17 240.708C275.708 205.17 333.326 205.17 368.864 240.708Z" fill="#1BA3A0"/>
<path d="M332.12 331C332.12 381.258 270.62 482 241.12 482C222.343 482 190.601 441.185 170.007 398.553C170.007 398.553 230.893 388.578 253.874 340.848C276.855 293.119 241.12 240 241.12 240C291.378 240 332.12 280.742 332.12 331Z" fill="#1E83F7"/>
<path d="M242.292 368.864C206.754 404.402 92.0316 432.15 71.172 411.29C57.8946 398.013 64.3104 346.708 79.8932 302C79.8932 302 130 338 180 320.5C230 303 242.292 240.171 242.292 240.171C277.83 275.708 277.83 333.326 242.292 368.864Z" fill="#857ED6"/>
<path d="M152 332.12C101.742 332.12 1 270.62 1 241.12C1 222.343 41.8148 190.601 84.4468 170.007C84.4468 170.007 94.4218 230.893 142.152 253.874C189.881 276.855 243 241.12 243 241.12C243 291.378 202.258 332.12 152 332.12Z" fill="#ED79B5"/>
<path d="M114.136 242.292C78.5984 206.754 50.8501 92.0317 71.7097 71.172C84.9871 57.8947 136.292 64.3105 181 79.8933C181 79.8933 145 130 162.5 180C180 230 242.83 242.292 242.83 242.292C207.292 277.83 149.674 277.83 114.136 242.292Z" fill="#F3516B"/>
<path d="M150.88 152C150.88 101.742 212.38 1 241.88 1C260.657 1 292.399 41.8148 312.993 84.4468C312.993 84.4468 252.107 94.4218 229.126 142.152C206.145 189.881 241.88 243 241.88 243C191.622 243 150.88 202.258 150.88 152Z" fill="#FA2921"/>
<path d="M77.3963 172.96C58.4709 182.671 40.3199 194.352 26.4176 205.86C18.634 212.302 12.1687 218.702 7.64469 224.681C3.13159 230.647 0.5 236.26 0.5 241.12C0.5 244.942 2.12794 249.225 5.0045 253.767C7.88544 258.317 12.0462 263.169 17.1783 268.143C27.4431 278.091 41.6394 288.566 57.3942 298.11C63.725 301.945 70.31 305.631 76.996 309.074C70.4806 329.323 65.9058 350.417 64.2123 368.385C63.2641 378.444 63.2174 387.541 64.2467 394.968C65.2735 402.377 67.3821 408.208 70.8184 411.644C73.5212 414.347 77.7007 416.224 82.9466 417.402C88.2006 418.582 94.5742 419.071 101.72 418.959C116.013 418.735 133.458 416.104 151.347 411.712C158.535 409.947 165.798 407.897 172.96 405.604C182.671 424.529 194.352 442.68 205.86 456.582C212.302 464.366 218.701 470.831 224.681 475.355C230.646 479.868 236.26 482.5 241.12 482.5C244.942 482.5 249.225 480.872 253.767 477.995C258.316 475.115 263.169 470.954 268.143 465.822C278.091 455.557 288.566 441.361 298.11 425.606C301.945 419.275 305.631 412.69 309.074 406.004C329.323 412.519 350.417 417.094 368.385 418.788C378.444 419.736 387.541 419.783 394.968 418.753C402.377 417.726 408.207 415.618 411.644 412.182C414.347 409.479 416.224 405.299 417.402 400.053C418.581 394.799 419.071 388.426 418.959 381.28C418.735 366.987 416.103 349.542 411.712 331.653C409.947 324.465 407.897 317.202 405.604 310.04C424.529 300.329 442.68 288.648 456.582 277.14C464.366 270.698 470.831 264.298 475.355 258.319C479.868 252.353 482.5 246.74 482.5 241.88C482.5 238.058 480.872 233.775 477.995 229.233C475.114 224.683 470.954 219.831 465.822 214.857C455.557 204.909 441.361 194.434 425.606 184.89C419.275 181.055 412.69 177.369 406.004 173.926C412.519 153.677 417.094 132.583 418.788 114.615C419.736 104.556 419.783 95.4591 418.753 88.0319C417.727 80.6226 415.618 74.7924 412.182 71.3561C409.479 68.6532 405.299 66.7761 400.053 65.5982C394.799 64.4185 388.426 63.9291 381.28 64.0412C366.988 64.2652 349.542 66.8965 331.653 71.2882C324.465 73.053 317.202 75.1027 310.04 77.3962C300.329 58.4708 288.648 40.3199 277.14 26.4176C270.698 18.634 264.299 12.1687 258.319 7.64469C252.354 3.13159 246.74 0.5 241.88 0.5C238.058 0.5 233.775 2.12794 229.233 5.0045C224.684 7.88544 219.831 12.0462 214.857 17.1783C204.909 27.4431 194.434 41.6394 184.89 57.3942C181.055 63.725 177.369 70.31 173.926 76.9961C153.677 70.4807 132.583 65.9058 114.615 64.2123C104.556 63.2642 95.4592 63.2174 88.032 64.2468C80.6227 65.2736 74.7925 67.3822 71.3562 70.8185C68.6534 73.5213 66.7762 77.7007 65.5983 82.9467C64.4186 88.2007 63.9293 94.5743 64.0413 101.72C64.2653 116.013 66.8966 133.458 71.2884 151.347C73.0531 158.535 75.1028 165.798 77.3963 172.96Z" stroke="#0C1117"/>
<path fill-rule="evenodd" clip-rule="evenodd" d="M150.88 152C150.88 101.742 212.38 1.00003 241.88 1.00003C260.513 1.00003 291.912 41.191 312.517 83.466L302 87.0021C298.028 78.9485 293.647 70.967 289.034 63.3527C279.782 48.0798 269.814 34.6424 260.645 25.1816C256.053 20.4428 251.903 16.9546 248.375 14.7202C244.694 12.3895 242.6 12 241.88 12C241.16 12 239.066 12.3895 235.385 14.7202C231.857 16.9546 227.708 20.4428 223.115 25.1816C213.946 34.6424 203.978 48.0798 194.726 63.3527C185.501 78.5817 177.203 95.2797 171.243 111.085C165.214 127.074 161.88 141.357 161.88 152C161.88 196.183 197.697 232 241.88 232V243C191.622 243 150.88 202.258 150.88 152Z" fill="#0C1117"/>
<path fill-rule="evenodd" clip-rule="evenodd" d="M240.708 114.136C276.246 78.5984 390.968 50.85 411.828 71.7096C425.003 84.8851 418.787 135.507 403.464 179.97L393.526 175.033C396.412 166.53 398.958 157.788 401.081 149.143C405.338 131.801 407.791 115.251 407.998 102.077C408.101 95.4792 407.634 90.0785 406.719 86.0037C405.764 81.7533 404.559 79.9969 404.05 79.4878C403.54 78.9787 401.784 77.7732 397.534 76.8188C393.459 75.9039 388.058 75.4363 381.46 75.5398C368.287 75.7463 351.737 78.1992 334.395 82.4566C317.103 86.7018 299.428 92.6418 284.038 99.6034C268.469 106.646 256.012 114.388 248.486 121.914C222.164 148.237 218.019 188.338 236.051 219C237.617 221.662 239.35 224.254 241.25 226.758C243.44 229.645 245.852 232.417 248.486 235.051L240.708 242.829C205.17 207.292 205.17 149.674 240.708 114.136Z" fill="#0C1117"/>
<path fill-rule="evenodd" clip-rule="evenodd" d="M114.136 242.292C78.5984 206.754 50.8501 92.0317 71.7097 71.1721C84.8852 57.9966 135.507 64.2132 179.97 79.5363L175.033 89.4735C166.53 86.5878 157.788 84.0416 149.143 81.919C131.801 77.6616 115.251 75.2087 102.077 75.0022C95.4792 74.8987 90.0786 75.3663 86.0038 76.2812C81.7533 77.2356 79.997 78.4411 79.4879 78.9502C78.9788 79.4593 77.7733 81.2156 76.8189 85.4661C75.9039 89.5409 75.4364 94.9416 75.5398 101.54C75.7463 114.713 78.1993 131.263 82.4567 148.605C86.7019 165.897 92.6418 183.571 99.6035 198.962C106.646 214.531 114.389 226.988 121.914 234.514C153.156 265.756 203.809 265.756 235.051 234.514L242.83 242.292C207.292 277.83 149.674 277.83 114.136 242.292Z" fill="#0C1117"/>
<path fill-rule="evenodd" clip-rule="evenodd" d="M331 150.88C381.257 150.88 482 212.38 482 241.88C482 260.513 441.809 291.912 399.534 312.517L395.997 302C404.051 298.028 412.033 293.647 419.647 289.034C434.92 279.782 448.357 269.814 457.818 260.645C462.557 256.053 466.045 251.903 468.279 248.375C470.61 244.694 471 242.6 471 241.88C471 241.16 470.61 239.066 468.279 235.385C466.045 231.857 462.557 227.708 457.818 223.115C448.357 213.946 434.92 203.978 419.647 194.726C404.418 185.501 387.72 177.203 371.915 171.243C355.926 165.214 341.643 161.88 331 161.88C286.817 161.88 251 197.697 251 241.88H240C240 236.728 240.428 231.677 241.25 226.758C241.689 224.133 242.241 221.545 242.9 219C253.047 179.817 288.644 150.88 331 150.88Z" fill="#0C1117"/>
<path fill-rule="evenodd" clip-rule="evenodd" d="M368.863 240.708C404.401 276.246 432.149 390.968 411.29 411.828C398.114 425.003 347.492 418.787 303.03 403.464L307.966 393.527C316.47 396.412 325.211 398.958 333.857 401.081C351.199 405.338 367.749 407.791 380.922 407.998C387.52 408.101 392.921 407.634 396.996 406.719C401.246 405.764 403.003 404.559 403.512 404.05C404.021 403.541 405.226 401.784 406.181 397.534C407.096 393.459 407.563 388.058 407.46 381.46C407.253 368.287 404.8 351.737 400.543 334.395C396.298 317.103 390.358 299.429 383.396 284.038C376.354 268.469 368.611 256.012 361.085 248.486C329.843 217.244 279.19 217.244 247.948 248.486L240.17 240.708C275.708 205.17 333.326 205.17 368.863 240.708Z" fill="#0C1117"/>
<path fill-rule="evenodd" clip-rule="evenodd" d="M332.119 331C332.119 381.258 270.619 482 241.119 482C222.486 482 191.087 441.809 170.482 399.534L180.999 395.998C184.972 404.052 189.353 412.033 193.965 419.647C203.217 434.92 213.186 448.358 222.354 457.818C226.947 462.557 231.096 466.045 234.625 468.28C238.305 470.611 240.399 471 241.119 471C241.839 471 243.934 470.611 247.614 468.28C251.142 466.045 255.292 462.557 259.884 457.818C269.053 448.358 279.021 434.92 288.273 419.647C297.499 404.418 305.796 387.72 311.757 371.915C317.786 355.926 321.119 341.643 321.119 331C321.119 286.817 285.302 251 241.119 251V240C291.377 240 332.119 280.742 332.119 331Z" fill="#0C1117"/>
<path fill-rule="evenodd" clip-rule="evenodd" d="M242.292 368.864C206.754 404.402 92.0314 432.15 71.1717 411.29C57.9963 398.115 64.2129 347.493 79.536 303.03L89.4732 307.967C86.5874 316.47 84.0412 325.212 81.9187 333.857C77.6613 351.199 75.2084 367.75 75.0018 380.923C74.8984 387.521 75.366 392.922 76.2809 396.996C77.2353 401.247 78.4408 403.003 78.9499 403.512C79.459 404.021 81.2153 405.227 85.4658 406.181C89.5406 407.096 94.9413 407.564 101.539 407.46C114.713 407.254 131.263 404.801 148.605 400.543C165.897 396.298 183.571 390.358 198.962 383.397C214.53 376.354 226.988 368.612 234.513 361.086C265.755 329.844 265.755 279.191 234.513 247.949L242.292 240.171C277.829 275.708 277.829 333.326 242.292 368.864Z" fill="#0C1117"/>
<path fill-rule="evenodd" clip-rule="evenodd" d="M152 332.12C101.742 332.12 1 270.62 1 241.12C1 222.487 41.191 191.088 83.466 170.483L87.002 181C78.9485 184.972 70.967 189.353 63.3527 193.966C48.0797 203.218 34.6424 213.186 25.1815 222.355C20.4427 226.947 16.9545 231.097 14.7202 234.625C12.3895 238.306 12 240.4 12 241.12C12 241.84 12.3895 243.934 14.7202 247.615C16.9545 251.143 20.4427 255.292 25.1815 259.885C34.6424 269.054 48.0797 279.022 63.3527 288.274C78.5817 297.499 95.2797 305.797 111.085 311.757C127.074 317.786 141.357 321.12 152 321.12C196.183 321.12 232 285.303 232 241.12H243C243 291.378 202.258 332.12 152 332.12Z" fill="#0C1117"/>
<path d="M236.051 219C237.617 221.662 239.35 224.254 241.25 226.758C241.689 224.133 242.241 221.545 242.9 219C242.9 219 242 221 240 221C237.267 221 236.051 219 236.051 219Z" fill="#0C1117"/>
<path d="M253.486 222C252.711 224.99 252.104 228.047 251.676 231.162C253.844 229.616 256.064 228.176 258.329 226.843C258.329 226.843 256.278 227.621 254.864 226.206C252.932 224.274 253.486 222 253.486 222Z" fill="#0C1117"/>
<path d="M261.2 253.5C258.21 252.725 255.153 252.118 252.038 251.69C253.584 253.858 255.024 256.077 256.357 258.343C256.357 258.343 255.579 256.292 256.994 254.878C258.926 252.946 261.2 253.5 261.2 253.5Z" fill="#0C1117"/>
<path d="M246.92 263.9C245.354 261.238 243.621 258.646 241.721 256.142C241.282 258.767 240.73 261.355 240.071 263.9C240.071 263.9 240.971 261.9 242.971 261.9C245.704 261.9 246.92 263.9 246.92 263.9Z" fill="#0C1117"/>
<path d="M229.46 261.2C230.235 258.21 230.842 255.153 231.27 252.038C229.103 253.584 226.883 255.024 224.617 256.357C224.617 256.357 226.668 255.579 228.082 256.994C230.014 258.926 229.46 261.2 229.46 261.2Z" fill="#0C1117"/>
<path d="M219 246.95C221.662 245.384 224.254 243.651 226.758 241.751C224.133 241.312 221.545 240.76 219 240.101C219 240.101 221 241.001 221 243.001C221 245.734 219 246.95 219 246.95Z" fill="#0C1117"/>
<path d="M221.8 229.5C224.79 230.275 227.847 230.882 230.962 231.31C229.416 229.142 227.976 226.922 226.643 224.657C226.643 224.657 227.421 226.708 226.006 228.122C224.074 230.054 221.8 229.5 221.8 229.5Z" fill="#0C1117"/>
<path d="M264 236.05C261.338 237.616 258.746 239.349 256.242 241.249C258.867 241.688 261.455 242.24 264 242.899C264 242.899 262 241.999 262 239.999C262 237.266 264 236.05 264 236.05Z" fill="#0C1117"/>
</svg>

<svg xmlns="http://www.w3.org/2000/svg" width="483" height="483" fill="none"><path fill="#8BBB25" d="M240.708 114.136c35.538-35.538 150.26-63.286 171.12-42.426 13.277 13.277 6.862 64.582-8.721 109.29 0 0-50.107-36-100.107-18.5s-62.292 80.329-62.292 80.329c-35.537-35.537-35.537-93.155 0-128.693"/><path fill="#18C249" d="M331 150.88c50.258 0 151 61.5 151 91 0 18.777-40.815 50.519-83.447 71.113 0 0-9.975-60.886-57.705-83.867S240 241.88 240 241.88c0-50.258 40.742-91 91-91"/><path fill="#1BA3A0" d="M368.864 240.708c35.537 35.538 63.286 150.26 42.426 171.12-13.277 13.277-64.582 6.861-109.29-8.721 0 0 36-50.107 18.5-100.107s-80.33-62.292-80.33-62.292c35.538-35.538 93.156-35.538 128.694 0"/><path fill="#1E83F7" d="M332.12 331c0 50.258-61.5 151-91 151-18.777 0-50.519-40.815-71.113-83.447 0 0 60.886-9.975 83.867-57.705S241.12 240 241.12 240c50.258 0 91 40.742 91 91"/><path fill="#857ED6" d="M242.292 368.864c-35.538 35.538-150.26 63.286-171.12 42.426-13.277-13.277-6.862-64.582 8.721-109.29 0 0 50.107 36 100.107 18.5s62.292-80.329 62.292-80.329c35.538 35.537 35.538 93.155 0 128.693"/><path fill="#ED79B5" d="M152 332.12c-50.258 0-151-61.5-151-91 0-18.777 40.815-50.519 83.447-71.113 0 0 9.975 60.886 57.705 83.867S243 241.12 243 241.12c0 50.258-40.742 91-91 91"/><path fill="#F3516B" d="M114.136 242.292C78.598 206.754 50.85 92.032 71.71 71.172c13.277-13.277 64.582-6.861 109.29 8.721 0 0-36 50.107-18.5 100.107s80.33 62.292 80.33 62.292c-35.538 35.538-93.156 35.538-128.694 0"/><path fill="#FA2921" d="M150.88 152c0-50.258 61.5-151 91-151 18.777 0 50.519 40.815 71.113 83.447 0 0-60.886 9.975-83.867 57.705S241.88 243 241.88 243c-50.258 0-91-40.742-91-91"/><path stroke="#0C1117" d="M77.396 172.96c-18.925 9.711-37.076 21.392-50.978 32.9-7.784 6.442-14.25 12.842-18.773 18.821C3.132 230.647.5 236.26.5 241.12c0 3.822 1.628 8.105 4.505 12.647 2.88 4.55 7.041 9.402 12.173 14.376 10.265 9.948 24.461 20.423 40.216 29.967a326 326 0 0 0 19.602 10.964c-6.515 20.249-11.09 41.343-12.784 59.311-.948 10.059-.995 19.156.035 26.583 1.026 7.409 3.135 13.24 6.571 16.676 2.703 2.703 6.883 4.58 12.129 5.758 5.254 1.18 11.627 1.669 18.773 1.557 14.293-.224 31.738-2.855 49.627-7.247a327 327 0 0 0 21.613-6.108c9.711 18.925 21.392 37.076 32.9 50.978 6.442 7.784 12.841 14.249 18.821 18.773 5.965 4.513 11.579 7.145 16.439 7.145 3.822 0 8.105-1.628 12.647-4.505 4.549-2.88 9.402-7.041 14.376-12.173 9.948-10.265 20.423-24.461 29.967-40.216a326 326 0 0 0 10.964-19.602c20.249 6.515 41.343 11.09 59.311 12.784 10.059.948 19.156.995 26.583-.035 7.409-1.027 13.239-3.135 16.676-6.571 2.703-2.703 4.58-6.883 5.758-12.129 1.179-5.254 1.669-11.627 1.557-18.773-.224-14.293-2.856-31.738-7.247-49.627a327 327 0 0 0-6.108-21.613c18.925-9.711 37.076-21.392 50.978-32.9 7.784-6.442 14.249-12.842 18.773-18.821 4.513-5.966 7.145-11.579 7.145-16.439 0-3.822-1.628-8.105-4.505-12.647-2.881-4.55-7.041-9.402-12.173-14.376-10.265-9.948-24.461-20.423-40.216-29.967a326 326 0 0 0-19.602-10.964c6.515-20.249 11.09-41.343 12.784-59.311.948-10.059.995-19.156-.035-26.583-1.026-7.41-3.135-13.24-6.571-16.676-2.703-2.703-6.883-4.58-12.129-5.758-5.254-1.18-11.627-1.669-18.773-1.557-14.292.224-31.738 2.856-49.627 7.247a326 326 0 0 0-21.613 6.108c-9.711-18.925-21.392-37.076-32.9-50.978-6.442-7.784-12.841-14.25-18.821-18.773C252.354 3.132 246.74.5 241.88.5c-3.822 0-8.105 1.628-12.647 4.505-4.549 2.88-9.402 7.041-14.376 12.173-9.948 10.265-20.423 24.461-29.967 40.216a326 326 0 0 0-10.964 19.602c-20.249-6.515-41.343-11.09-59.311-12.784-10.059-.948-19.156-.995-26.583.035-7.41 1.027-13.24 3.135-16.676 6.572-2.703 2.702-4.58 6.882-5.758 12.128-1.18 5.254-1.669 11.627-1.557 18.773.224 14.293 2.856 31.738 7.247 49.627a326 326 0 0 0 6.108 21.613Z"/><path fill="#0C1117" fill-rule="evenodd" d="M150.88 152c0-50.258 61.5-151 91-151 18.633 0 50.032 40.191 70.637 82.466L302 87.002a314 314 0 0 0-12.966-23.65c-9.252-15.272-19.22-28.71-28.389-38.17-4.592-4.74-8.742-8.227-12.27-10.462-3.681-2.33-5.775-2.72-6.495-2.72s-2.814.39-6.495 2.72c-3.528 2.235-7.677 5.723-12.27 10.462-9.169 9.46-19.137 22.898-28.389 38.17-9.225 15.23-17.523 31.928-23.483 47.733-6.029 15.989-9.363 30.272-9.363 40.915 0 44.183 35.817 80 80 80v11c-50.258 0-91-40.742-91-91" clip-rule="evenodd"/><path fill="#0C1117" fill-rule="evenodd" d="M240.708 114.136c35.538-35.538 150.26-63.286 171.12-42.426 13.175 13.175 6.959 63.797-8.364 108.26l-9.938-4.937a314 314 0 0 0 7.555-25.89c4.257-17.342 6.71-33.892 6.917-47.066.103-6.598-.364-11.998-1.279-16.073-.955-4.25-2.16-6.007-2.669-6.516-.51-.51-2.266-1.715-6.516-2.67-4.075-.914-9.476-1.382-16.074-1.278-13.173.206-29.723 2.66-47.065 6.917-17.292 4.245-34.967 10.185-50.357 17.146-15.569 7.043-28.026 14.785-35.552 22.311-26.322 26.323-30.467 66.424-12.435 97.086a80 80 0 0 0 5.199 7.758 81 81 0 0 0 7.236 8.293l-7.778 7.778c-35.538-35.537-35.538-93.155 0-128.693" clip-rule="evenodd"/><path fill="#0C1117" fill-rule="evenodd" d="M114.136 242.292C78.598 206.754 50.85 92.032 71.71 71.172c13.175-13.175 63.797-6.959 108.26 8.364l-4.937 9.938a314 314 0 0 0-25.89-7.555c-17.342-4.257-33.892-6.71-47.066-6.917-6.598-.103-11.998.364-16.073 1.28-4.25.954-6.007 2.16-6.516 2.668-.51.51-1.715 2.266-2.67 6.516-.914 4.075-1.382 9.476-1.278 16.074.206 13.173 2.66 29.723 6.917 47.065 4.245 17.292 10.185 34.966 17.147 50.357 7.042 15.569 14.785 28.026 22.31 35.552 31.242 31.242 81.895 31.242 113.137 0l7.779 7.778c-35.538 35.538-93.156 35.538-128.694 0" clip-rule="evenodd"/><path fill="#0C1117" fill-rule="evenodd" d="M331 150.88c50.257 0 151 61.5 151 91 0 18.633-40.191 50.032-82.466 70.637L395.997 302a314 314 0 0 0 23.65-12.966c15.273-9.252 28.71-19.22 38.171-28.389 4.739-4.592 8.227-8.742 10.461-12.27 2.331-3.681 2.721-5.775 2.721-6.495s-.39-2.814-2.721-6.495c-2.234-3.528-5.722-7.677-10.461-12.27-9.461-9.169-22.898-19.137-38.171-28.389-15.229-9.225-31.927-17.523-47.732-23.483-15.989-6.029-30.272-9.363-40.915-9.363-44.183 0-80 35.817-80 80h-11a91.7 91.7 0 0 1 1.25-15.122A91 91 0 0 1 242.9 219c10.147-39.183 45.744-68.12 88.1-68.12" clip-rule="evenodd"/><path fill="#0C1117" fill-rule="evenodd" d="M368.863 240.708c35.538 35.538 63.286 150.26 42.427 171.12-13.176 13.175-63.798 6.959-108.26-8.364l4.936-9.937a315 315 0 0 0 25.891 7.554c17.342 4.257 33.892 6.71 47.065 6.917 6.598.103 11.999-.364 16.074-1.279 4.25-.955 6.007-2.16 6.516-2.669s1.714-2.266 2.669-6.516c.915-4.075 1.382-9.476 1.279-16.074-.207-13.173-2.66-29.723-6.917-47.065-4.245-17.292-10.185-34.966-17.147-50.357-7.042-15.569-14.785-28.026-22.311-35.552-31.242-31.242-81.895-31.242-113.137 0l-7.778-7.778c35.538-35.538 93.156-35.538 128.693 0" clip-rule="evenodd"/><path fill="#0C1117" fill-rule="evenodd" d="M332.119 331c0 50.258-61.5 151-91 151-18.633 0-50.032-40.191-70.637-82.466l10.517-3.536a314 314 0 0 0 12.966 23.649c9.252 15.273 19.221 28.711 28.389 38.171 4.593 4.739 8.742 8.227 12.271 10.462 3.68 2.331 5.774 2.72 6.494 2.72s2.815-.389 6.495-2.72c3.528-2.235 7.678-5.723 12.27-10.462 9.169-9.46 19.137-22.898 28.389-38.171 9.226-15.229 17.523-31.927 23.484-47.732 6.029-15.989 9.362-30.272 9.362-40.915 0-44.183-35.817-80-80-80v-11c50.258 0 91 40.742 91 91" clip-rule="evenodd"/><path fill="#0C1117" fill-rule="evenodd" d="M242.292 368.864c-35.538 35.538-150.26 63.286-171.12 42.426-13.176-13.175-6.96-63.797 8.364-108.26l9.937 4.937a314 314 0 0 0-7.554 25.89c-4.258 17.342-6.71 33.893-6.917 47.066-.104 6.598.364 11.999 1.279 16.073.954 4.251 2.16 6.007 2.669 6.516s2.265 1.715 6.516 2.669c4.075.915 9.475 1.383 16.073 1.279 13.174-.206 29.724-2.659 47.066-6.917 17.292-4.245 34.966-10.185 50.357-17.146 15.568-7.043 28.026-14.785 35.551-22.311 31.242-31.242 31.242-81.895 0-113.137l7.779-7.778c35.537 35.537 35.537 93.155 0 128.693" clip-rule="evenodd"/><path fill="#0C1117" fill-rule="evenodd" d="M152 332.12c-50.258 0-151-61.5-151-91 0-18.633 40.191-50.032 82.466-70.637L87.002 181a314 314 0 0 0-23.65 12.966c-15.272 9.252-28.71 19.22-38.17 28.389-4.74 4.592-8.227 8.742-10.462 12.27-2.33 3.681-2.72 5.775-2.72 6.495s.39 2.814 2.72 6.495c2.234 3.528 5.723 7.677 10.462 12.27 9.46 9.169 22.898 19.137 38.17 28.389 15.23 9.225 31.928 17.523 47.733 23.483 15.989 6.029 30.272 9.363 40.915 9.363 44.183 0 80-35.817 80-80h11c0 50.258-40.742 91-91 91" clip-rule="evenodd"/><path fill="#0C1117" d="M236.051 219a80 80 0 0 0 5.199 7.758A91 91 0 0 1 242.9 219s-.9 2-2.9 2c-2.733 0-3.949-2-3.949-2M253.486 222a80 80 0 0 0-1.81 9.162 91 91 0 0 1 6.653-4.319s-2.051.778-3.465-.637c-1.932-1.932-1.378-4.206-1.378-4.206M261.2 253.5a80 80 0 0 0-9.162-1.81 90 90 0 0 1 4.319 6.653s-.778-2.051.637-3.465c1.932-1.932 4.206-1.378 4.206-1.378M246.92 263.9a80 80 0 0 0-5.199-7.758 91 91 0 0 1-1.65 7.758s.9-2 2.9-2c2.733 0 3.949 2 3.949 2M229.46 261.2a80 80 0 0 0 1.81-9.162 90 90 0 0 1-6.653 4.319s2.051-.778 3.465.637c1.932 1.932 1.378 4.206 1.378 4.206M219 246.95a80 80 0 0 0 7.758-5.199 91 91 0 0 1-7.758-1.65s2 .9 2 2.9c0 2.733-2 3.949-2 3.949M221.8 229.5a80 80 0 0 0 9.162 1.81 91 91 0 0 1-4.319-6.653s.778 2.051-.637 3.465c-1.932 1.932-4.206 1.378-4.206 1.378M264 236.05a80 80 0 0 0-7.758 5.199q3.939.66 7.758 1.65s-2-.9-2-2.9c0-2.733 2-3.949 2-3.949"/></svg>
